Adwaita++/actions/symbolic/go-bottom-symbolic.svg

<svg height="16" width="16" xmlns="http://www.w3.org/2000/svg">
  <g fill="#474747">
    <path d="m3.707 3.293-1.414 1.414 5.707 5.707 5.707-5.707-1.414-1.414-4.293 4.293zm-1.705 7.691-.004 2 1 .002 10 .014 1 .002.004-2-1-.002-10-.014z"/>
    <path d="m3 4v-1h-1v1zm11 0v-1h-1v1z"/>
    <path d="m14 4c0-.554-.446-1-1-1s-1 .446-1 1 .446 1 1 1 1-.446 1-1zm-10 0c0-.554-.446-1-1-1s-1 .446-1 1 .446 1 1 1 1-.446 1-1z"/>
  </g>
</svg>

<svg xmlns="http://www.w3.org/2000/svg" width="16" height="16">
    <g color="#000" fill="#474747">
        <path d="M3.707 3.293L2.293 4.707 8 10.414l5.707-5.707-1.414-1.414L8 7.586zM2.002 10.984l-.004 2 1 .002 10 .014 1 .002.004-2-1-.002-10-.014z" style="line-height:normal;font-variant-ligatures:normal;font-variant-position:normal;font-variant-caps:normal;font-variant-numeric:normal;font-variant-alternates:normal;font-feature-settings:normal;text-indent:0;text-align:start;text-decoration-line:none;text-decoration-style:solid;text-decoration-color:#000;text-transform:none;text-orientation:mixed;shape-padding:0;isolation:auto;mix-blend-mode:normal;marker:none" font-weight="400" font-family="sans-serif" white-space="normal" overflow="visible"/>
        <path d="M3 4V3H2v1zM14 4V3h-1v1z" style="marker:none" overflow="visible"/>
        <path d="M14 4c0-.554-.446-1-1-1s-1 .446-1 1 .446 1 1 1 1-.446 1-1zM4 4c0-.554-.446-1-1-1s-1 .446-1 1 .446 1 1 1 1-.446 1-1z" style="marker:none" overflow="visible"/>
    </g>
</svg>
